X:1
T:Danse du Roy
T:Danse du Roy
T:(Basse dansse 8)
T:Tielman Susato
C:Tielman Susato
%%score 1 2 3 4
L:1/8
Q:1/2=180
M:4/2
K:F
V:1 treble 
V:2 treble 
V:3 treble 
V:4 treble 
V:1
 c2 B2 c2 d2 c4 B4 | A4 G4 F4 E4 | D8 D4 D4 | D8 C2 D2 E2 F2 | G8 G4 G4 | G2 A2 B2 A2 G2 F2 E2 D2 | %6
 E8 E4 E4 | E8 E8 | c2 B2 c2 d2 c4 B4 | A4 G4 F4 E4 | D8 D4 D4 | D8 C2 D2 E2 F2 | G8 G4 F4 | %13
 E2 F2 G2 F2 E2 D2 F2 E2 | F8 F4 F4 | F8 |:"^Reprise" F4 F4 | B8 B4 B4 | c4 B2 A2 G2 A2 B2 c2 | %19
 d8 d4 d4 | d8 c4 d4 | _e4 d4 c4 B4 | A4 G4 B4 A4 | B12 B4 | B8 :| %25
V:2
 F8 F4 F4 | F4 E4 D4 C4 | B,8 A,8 | B,8 C8 | D8 G,6 A,2 | B,2 C2 D8 C4 | C8 C4 C4 | C8 C4 E4 | %8
 F8 F4 F4 | F4 E4 D4 C4 | B,8 A,8 | B,8 C8 | D8 D8 | G,4 A,2 B,2 C8 | A,8 A,4 A,4 | A,8 |: C8 | %17
 G8 G4 G4 | G8 G4 G,4 | A,8 A,4 A,4 | B,8 G,4 B,4 | G,4 F,4 F4 F4 | F4 E4 F8 | D12 D4 | D8 :| %25
V:3
 A,6 B,2 C4 D4 | C6 B,2 A,6 G,2 | F,4 G,8 F,4 | G,8 G,4 A,4 | B,8 C8 | B,12 G,4 | G,8 G,4 G,4 | %7
 G,8 G,8 | A,6 B,2 C4 D4 | C6 B,2 A,6 G,2 | F,4 G,8 F,4 | G,12 A,4 | B,8 B,4 A,2 B,2 | %13
 C4 B,2 A,2 G,8 | F,8 F,4 F,4 | F,8 |: A,4 A,4 | B,6 C2 D4 D4 | E4 D2 C2 B,2 C2 D2 E2 | F12 F4 | %20
 F8 _E4 D4 | C4 B,4 A,4 G,4 | A,4 B,4 C8 | B,12 B,4 | B,8 :| %25
V:4
 F,8 F,4 B,,4 | F,4 C,4 D,4 A,,4 | B,,4 G,,4 D,8 | G,,8 C,8 | G,,8 C,2 D,2 E,2 F,2 | G,12 C,4 | %6
 C,8 C,4 C,4 | C,8 C,8 | F,8 F,4 B,,4 | F,4 C,4 D,4 A,,4 | B,,4 G,,4 D,8 | G,,8 C,4 C,4 | %12
 G,,8 D,8 | C,8 C,8 | F,,8 F,,4 F,,4 | F,,8 |: F,8 | G,8 G,4 G,4 | C,4 G,4 G,4 F,2 E,2 | D,12 D,4 | %20
 B,,8 C,4 B,,4 | C,4 D,2 E,2 F,4 B,,4 | F,4 G,4 F,8 | B,,12 B,,4 | B,,8 :| %25

